file/nissan.svg

<svg clip-rule="evenodd" fill-rule="evenodd" stroke-linejoin="round" stroke-miterlimit="1.41421" viewBox="0 0 560 400" xmlns="http://www.w3.org/2000/svg"><path d="m96.771 125.249h12.058c.659 0 1.191.534 1.191 1.191v46.338c0 .657-.532 1.19-1.191 1.19h-12.058c-.658 0-1.191-.533-1.191-1.19v-46.338c0-.658.533-1.191 1.191-1.191m-68.799.397h18.124c.659 0 3.293.276 4.834 2.658l22.653 35.085v-36.552c0-.658.533-1.191 1.191-1.191h10.328c.658 0 1.191.533 1.191 1.191v46.338c0 .657-.534 1.19-1.191 1.19l-17.65.018c-.659 0-4.232-.016-5.844-2.92l-21.958-34.171v35.883c0 .657-.533 1.19-1.192 1.19h-10.486c-.658 0-1.192-.533-1.192-1.19v-46.338c0-.658.534-1.191 1.192-1.191zm285.937 0 18.282-.008c.658 0 3.294.284 4.835 2.666l22.652 35.085v-36.552c0-.658.535-1.191 1.192-1.191h10.327c.658 0 1.192.533 1.192 1.191v46.338c0 .657-.534 1.19-1.192 1.19l-17.649-.008c-.66 0-4.232.01-5.845-2.895l-21.957-34.171v35.883c0 .657-.535 1.19-1.192 1.19h-10.646c-.657 0-1.192-.533-1.192-1.19v-46.338c0-.657.535-1.19 1.193-1.19zm-51.07 28.847h19.775l-8.072-17.941h-3.635zm24.242 9.931h-28.709l-3.9 8.672c-.297.658-1.07 1.19-1.727 1.19h-12.058c-.659 0-.952-.532-.655-1.19l20.842-46.339c.297-.658 1.07-1.19 1.729-1.19h20.248c.66 0 1.432.533 1.729 1.19l20.842 46.339c.297.658.004 1.19-.655 1.19h-12.056c-.658 0-1.432-.532-1.729-1.19zm-115.659-28.055h-35.775c-.878 0-1.589.71-1.589 1.588v2.751c0 .862.688 1.565 1.546 1.587 0 .008 29.531 2.779 29.681 2.892 5.238 1.071 9.177 6.024 9.177 11.579v5.308c0 6.694-3.425 12.294-15.021 12.294h-38.314c-.559 0-1.011-.451-1.011-1.007v-8.879c0-.555.452-1.005 1.011-1.005h37.664c.858-.021 1.547-.728 1.547-1.591v-3.74c0-.88-.711-1.589-1.589-1.589l-27.387-2.342c-.072-.006-.14-.02-.208-.039-6.137-.24-11.038-4.654-11.038-10.85v-5.388c0-6.694 5.35-12.141 12.007-12.294l39.299.001c.559 0 1.011.451 1.011 1.006v8.713c0 .556-.452 1.005-1.011 1.005zm61.936 0h-35.776c-.876 0-1.589.71-1.589 1.588v2.751c0 .862.689 1.565 1.547 1.587 0 .008 29.53 2.779 29.683 2.892 5.236 1.071 9.176 6.024 9.176 11.579v5.308c0 6.694-3.427 12.294-15.021 12.294h-38.316c-.557 0-1.01-.451-1.01-1.007v-8.879c0-.555.453-1.005 1.01-1.005h37.666c.857-.021 1.546-.728 1.546-1.591v-3.74c0-.88-.712-1.589-1.589-1.589l-27.388-2.342c-.071-.006-.141-.02-.207-.039-6.136-.24-11.038-4.654-11.038-10.85v-5.388c0-6.694 5.349-12.141 12.007-12.294l39.299.001c.558 0 1.01.451 1.01 1.006v8.713c0 .556-.452 1.005-1.01 1.005z" fill="#444" transform="matrix(1.44672 0 0 1.44672 -8.7432 -16.742)"/></svg>

<?xml version="1.0" encoding="UTF-8" standalone="no"?>
<!DOCTYPE svg PUBLIC "-//W3C//DTD SVG 1.1//EN" "http://www.w3.org/Graphics/SVG/1.1/DTD/svg11.dtd">
<svg width="100%" height="100%" viewBox="0 0 560 400" version="1.1" xmlns="http://www.w3.org/2000/svg" xmlns:xlink="http://www.w3.org/1999/xlink" xml:space="preserve" xmlns:serif="http://www.serif.com/" style="fill-rule:evenodd;clip-rule:evenodd;stroke-linejoin:round;stroke-miterlimit:1.41421;">
    <g id="nissan_1_" transform="matrix(1.44672,0,0,1.44672,-8.7432,-16.742)">
        <path d="M96.771,125.249L108.829,125.249C109.488,125.249 110.02,125.783 110.02,126.44L110.02,172.778C110.02,173.435 109.488,173.968 108.829,173.968L96.771,173.968C96.113,173.968 95.58,173.435 95.58,172.778L95.58,126.44C95.58,125.782 96.113,125.249 96.771,125.249M27.972,125.646L46.096,125.646C46.755,125.646 49.389,125.922 50.93,128.304L73.583,163.389L73.583,126.837C73.583,126.179 74.116,125.646 74.774,125.646L85.102,125.646C85.76,125.646 86.293,126.179 86.293,126.837L86.293,173.175C86.293,173.832 85.759,174.365 85.102,174.365L67.452,174.383C66.793,174.383 63.22,174.367 61.608,171.463L39.65,137.292L39.65,173.175C39.65,173.832 39.117,174.365 38.458,174.365L27.972,174.365C27.314,174.365 26.78,173.832 26.78,173.175L26.78,126.837C26.78,126.179 27.314,125.646 27.972,125.646ZM313.909,125.646L332.191,125.638C332.849,125.638 335.485,125.922 337.026,128.304L359.678,163.389L359.678,126.837C359.678,126.179 360.213,125.646 360.87,125.646L371.197,125.646C371.855,125.646 372.389,126.179 372.389,126.837L372.389,173.175C372.389,173.832 371.855,174.365 371.197,174.365L353.548,174.357C352.888,174.357 349.316,174.367 347.703,171.462L325.746,137.291L325.746,173.174C325.746,173.831 325.211,174.364 324.554,174.364L313.908,174.364C313.251,174.364 312.716,173.831 312.716,173.174L312.716,126.836C312.716,126.179 313.251,125.646 313.909,125.646ZM262.839,154.493L282.614,154.493L274.542,136.552L270.907,136.552L262.839,154.493ZM287.081,164.424L258.372,164.424L254.472,173.096C254.175,173.754 253.402,174.286 252.745,174.286L240.687,174.286C240.028,174.286 239.735,173.754 240.032,173.096L260.874,126.757C261.171,126.099 261.944,125.567 262.603,125.567L282.851,125.567C283.511,125.567 284.283,126.1 284.58,126.757L305.422,173.096C305.719,173.754 305.426,174.286 304.767,174.286L292.711,174.286C292.053,174.286 291.279,173.754 290.982,173.096L287.081,164.424ZM171.422,136.369L135.647,136.369C134.769,136.369 134.058,137.079 134.058,137.957L134.058,140.708C134.058,141.57 134.746,142.273 135.604,142.295C135.604,142.303 165.135,145.074 165.285,145.187C170.523,146.258 174.462,151.211 174.462,156.766L174.462,162.074C174.462,168.768 171.037,174.368 159.441,174.368L121.127,174.368C120.568,174.368 120.116,173.917 120.116,173.361L120.116,164.482C120.116,163.927 120.568,163.477 121.127,163.477L158.791,163.477C159.649,163.456 160.338,162.749 160.338,161.886L160.338,158.146C160.338,157.266 159.627,156.557 158.749,156.557L131.362,154.215C131.29,154.209 131.222,154.195 131.154,154.176C125.017,153.936 120.116,149.522 120.116,143.326L120.116,137.938C120.116,131.244 125.466,125.797 132.123,125.644L171.422,125.645C171.981,125.645 172.433,126.096 172.433,126.651L172.433,135.364C172.433,135.92 171.981,136.369 171.422,136.369ZM233.358,136.369L197.582,136.369C196.706,136.369 195.993,137.079 195.993,137.957L195.993,140.708C195.993,141.57 196.682,142.273 197.54,142.295C197.54,142.303 227.07,145.074 227.223,145.187C232.459,146.258 236.399,151.211 236.399,156.766L236.399,162.074C236.399,168.768 232.972,174.368 221.378,174.368L183.062,174.368C182.505,174.368 182.052,173.917 182.052,173.361L182.052,164.482C182.052,163.927 182.505,163.477 183.062,163.477L220.728,163.477C221.585,163.456 222.274,162.749 222.274,161.886L222.274,158.146C222.274,157.266 221.562,156.557 220.685,156.557L193.297,154.215C193.226,154.209 193.156,154.195 193.09,154.176C186.954,153.936 182.052,149.522 182.052,143.326L182.052,137.938C182.052,131.244 187.401,125.797 194.059,125.644L233.358,125.645C233.916,125.645 234.368,126.096 234.368,126.651L234.368,135.364C234.368,135.92 233.916,136.369 233.358,136.369Z" style="fill:rgb(68,68,68);"/>
    </g>
</svg>
